X: 299
T: Haynt iz Purim, Brider! [Em]
C:melody: A.Goldfaden
M:2/4
L:1/8
Z:2009 John Chambers <jc:trillian.mit.edu>
K:Em
|: "Em"EG BA | "Am"G A2 G | "B7"BA GF | "Em"E4 "^fine":|[M:6/8][L:1/8] [| "Em"{A}ABc d2A | "Em"ABc d2A 
| "Em"eed "E7"ccB | "Am"A3- A2A | "D7"ABc "G"d2G | "G"GAB "D7"c2F | "B7"BBA GGF | "Em"E3- E3 |]



